styles/1/Numix/48/actions/grey-add-folders-to-archive.svg

<?xml version="1.0" encoding="UTF-8" standalone="no"?>
<svg
   xmlns:dc="http://purl.org/dc/elements/1.1/"
   xmlns:cc="http://creativecommons.org/ns#"
   xmlns:rdf="http://www.w3.org/1999/02/22-rdf-syntax-ns#"
   xmlns:svg="http://www.w3.org/2000/svg"
   xmlns="http://www.w3.org/2000/svg"
   xmlns:sodipodi="http://sodipodi.sourceforge.net/DTD/sodipodi-0.dtd"
   xmlns:inkscape="http://www.inkscape.org/namespaces/inkscape"
   width="48"
   height="48"
   viewBox="0 0 48 48"
   id="svg2"
   version="1.1"
   inkscape:version="0.91 r"
   sodipodi:docname="grey-add-folders-to-archive.svg">
  <metadata
     id="metadata20">
    <rdf:RDF>
      <cc:Work
         rdf:about="">
        <dc:format>image/svg+xml</dc:format>
        <dc:type
           rdf:resource="http://purl.org/dc/dcmitype/StillImage" />
      </cc:Work>
    </rdf:RDF>
  </metadata>
  <defs
     id="defs18" />
  <sodipodi:namedview
     pagecolor="#ffffff"
     bordercolor="#666666"
     borderopacity="1"
     objecttolerance="10"
     gridtolerance="10"
     guidetolerance="10"
     inkscape:pageopacity="0"
     inkscape:pageshadow="2"
     inkscape:window-width="1366"
     inkscape:window-height="747"
     id="namedview16"
     showgrid="true"
     inkscape:zoom="9.8333335"
     inkscape:cx="19.659683"
     inkscape:cy="25.461509"
     inkscape:window-x="0"
     inkscape:window-y="21"
     inkscape:window-maximized="1"
     inkscape:current-layer="svg2">
    <inkscape:grid
       type="xygrid"
       id="grid2997" />
  </sodipodi:namedview>
  <path
     style="font-size:medium;font-style:normal;font-variant:normal;font-weight:normal;font-stretch:normal;text-indent:0;text-align:start;text-decoration:none;line-height:normal;letter-spacing:normal;word-spacing:normal;text-transform:none;direction:ltr;block-progression:tb;writing-mode:lr-tb;text-anchor:start;baseline-shift:baseline;color:#000000;fill:#bdbdbd;fill-opacity:1;fill-rule:nonzero;stroke:none;stroke-width:3.00000024;marker:none;visibility:visible;display:inline;overflow:visible;enable-background:accumulate;font-family:Sans;-inkscape-font-specification:Sans;opacity:0.4"
     d="M 1.1875 16 C 0.51113195 16.143956 -0.015080004 16.808646 0 17.5 L 0 44.5 C 7.9e-05 45.285377 0.71462395 45.999921 1.5 46 L 28 46 L 28 40 L 20 40 L 20 28 L 28 28 L 28 20 L 37.875 20 C 37.643852 19.454487 37.09885 19.03131 36.5 19.03125 L 22 19.03125 L 22 17.5 C 21.999921 16.714623 21.285377 16.000078 20.5 16 L 1.5 16 C 1.396212 15.98913 1.291289 15.98913 1.1875 16 z "
     id="path2995" />
  <path
     style="font-size:medium;font-style:normal;font-variant:normal;font-weight:normal;font-stretch:normal;text-indent:0;text-align:start;text-decoration:none;line-height:normal;letter-spacing:normal;word-spacing:normal;text-transform:none;direction:ltr;block-progression:tb;writing-mode:lr-tb;text-anchor:start;baseline-shift:baseline;color:#000000;fill:#bdbdbd;fill-opacity:1;fill-rule:nonzero;stroke:none;stroke-width:3.00000024;marker:none;visibility:visible;display:inline;overflow:visible;enable-background:accumulate;font-family:Sans;-inkscape-font-specification:Sans"
     d="M 11.1875 0 C 10.511132 0.143956 9.98492 0.80864599 10 1.5 L 10 28.5 C 10.000079 29.285377 10.714624 29.999921 11.5 30 L 20 30 L 20 28 L 28 28 L 28 20 L 40 20 L 40 28 L 48 28 L 48 4.53125 C 47.999921 3.745873 47.285377 3.031329 46.5 3.03125 L 32 3.03125 L 32 1.5 C 31.999921 0.71462299 31.285377 7.8e-05 30.5 0 L 11.5 0 C 11.396212 -0.010870005 11.291289 -0.010870005 11.1875 0 z "
     id="path3912" />
  <path
     style="fill:#859900"
     d="M 46 30 L 38 30 L 38 22 L 30 22 L 30 30 L 22 30 L 22 38 L 30 38 L 30 46 L 38 46 L 38 38 L 46 38 Z "
     id="path14" />
</svg>

<svg xmlns="http://www.w3.org/2000/svg" viewBox="0 0 48 48">
 <path d="m 1.188 16 c -0.676 0.144 -1.203 0.809 -1.188 1.5 l 0 27 c 0 0.785 0.715 1.5 1.5 1.5 l 26.5 0 l 0 -6 l -8 0 l 0 -12 l 8 0 l 0 -8 l 9.875 0 c -0.231 -0.546 -0.776 -0.969 -1.375 -0.969 l -14.5 0 l 0 -1.531 c 0 -0.785 -0.715 -1.5 -1.5 -1.5 l -19 0 c -0.104 -0.011 -0.209 -0.011 -0.313 0 z" style="visibility:visible;fill:#bdbdbd;opacity:0.4;fill-opacity:1;stroke:none;display:inline;color:#000;fill-rule:nonzero"/>
 <path d="m 11.188 0 c -0.676 0.144 -1.203 0.809 -1.188 1.5 l 0 27 c 0 0.785 0.715 1.5 1.5 1.5 l 8.5 0 l 0 -2 l 8 0 l 0 -8 l 12 0 l 0 8 l 8 0 l 0 -23.469 c 0 -0.785 -0.715 -1.5 -1.5 -1.5 l -14.5 0 l 0 -1.531 c 0 -0.785 -0.715 -1.5 -1.5 -1.5 l -19 0 c -0.104 -0.011 -0.209 -0.011 -0.313 0 z" style="visibility:visible;fill:#bdbdbd;fill-opacity:1;stroke:none;display:inline;color:#000;fill-rule:nonzero"/>
 <path d="m 46 30 l -8 0 l 0 -8 l -8 0 l 0 8 l -8 0 l 0 8 l 8 0 l 0 8 l 8 0 l 0 -8 l 8 0 Z" style="fill:#859900"/>
</svg>
